X:6018
T:Fte du Village, La
R:Bourre
C:Trad.
O:France
Z:Paul Hardy's Session Tunebook 2015 (see www.paulhardy.net). Creative Commons cc by-nc-sa licenced.
M:2/2
L:1/8
Q:1/2=80
K:G
"G"d3c B2AB|"C"c2B2 "D"A4|"G"B2G2 GFGB|"D"AGFE D2Bc|"G"d3c B2AB|"C"c2B2 "D"A4|"G"B2d2 "D7"cBAF|"G"G4 G4:|
|:"G"DGBG "D"DFAF|"G"DGBG "D"DFAF|"G"G2d2 "C"c2B2|"D"AGAB A4|"G"DGBG "D"DFAF|"G"DGBG "D"DFAF|"G"D2d2 "D7"cBAF|"G"G4 G4:|

